X: 1
T: WALTZ OF THE LILLIES
C:
R: waltz
Z: 2015 John Chambers <jc:trillian.mit.edu>
B: Concord Slow Scottish Jam session binder 2.
S: printed copy of unknown origin
M: 3/4
L: 1/8
K: G
D EF |:\
"G"G3 G, B,D | "Am"EF G2 GE | "C"C3 B, A,2 | "D"A,3 A, B,C |\
"Bm"B,3 B, CD | "C"C3 D EG | "D"F2 FE D2 | D3 F GA ||
"Em"B2 G3 D | "C"E2 G3 E | "G/B"D2 GD B,2 | "D"A,3 B, B,A, |\
"G"G,2 G,A, B,/A,/G, | D2 "G/B"G3 B, | "D"A,2 A,G, A,B, |1 "G"G,3 D EF :|2 "G"G,3 G Bd ||
|:\
"G"g2 gd B2 | gd Bd "D"fa | "Em"g2 ga b2 | ga bg d2 |\
"Am"c2 cB A2 | A3 B c/B/A | "D"f2 fe d2 | d3 A Bd ||
"G"g2 gd B2 | "Em"gd Bd fa | "C"g2 ga b2 | "G"ga bg d2 |\
"D"DF GA Ac |1 "Am"e2 A2 E2 | "C"G3 G GF | "G"G3 A Bd :|\
[2 "Am"e3 c BA | "C"G4 GF | "G"HG3 G, B,D |]
